img/image/design/grad-13.svg

<svg width="1684" height="1595" fill="none" xmlns="http://www.w3.org/2000/svg"><g opacity=".3" filter="url(#a)"><path fill-rule="evenodd" clip-rule="evenodd" d="M1203.29 818.489c-17.78 55.84-58.46 98.558-95.31 144.097-31.75 39.234-65.58 74.214-105.9 104.554-44.899 33.8-87.247 80.83-143.379 83.07-56.314 2.24-103.606-39.53-150.128-71.38-43.741-29.94-74.886-71.2-112.592-108.475-51.606-51.017-140.667-79.963-150.762-151.866-9.759-69.512 61.082-123.463 104.353-178.693 38.35-48.949 81.157-92.304 133.826-125.311 54.083-33.894 112.176-77.706 175.303-68.419 63.023 9.271 89.821 89.74 147.889 115.961 67.69 30.57 168.59-11.595 213.82 47.376 43.27 56.424 4.46 141.304-17.12 209.086Z" fill="url(#b)" fill-opacity=".5"/></g><defs><linearGradient id="b" x1="1240" y1="797.548" x2="444.307" y2="797.548" gradientUnits="userSpaceOnUse"><stop stop-color="#F8C14F"/><stop offset="1" stop-color="#FFA6ED" stop-opacity="0"/></linearGradient><filter id="a" x=".307" y=".802" width="1683.69" height="1593.49" filterUnits="userSpaceOnUse" color-interpolation-filters="sRGB"><feFlood flood-opacity="0" result="BackgroundImageFix"/><feBlend in="SourceGraphic" in2="BackgroundImageFix" result="shape"/><feGaussianBlur stdDeviation="222" result="effect1_foregroundBlur_16656_177"/></filter></defs></svg>

<svg width="1684" height="1595" viewBox="0 0 1684 1595" fill="none" xmlns="http://www.w3.org/2000/svg">
<g opacity="0.3" filter="url(#filter0_f_16656_177)">
<path fill-rule="evenodd" clip-rule="evenodd" d="M1203.29 818.489C1185.51 874.329 1144.83 917.047 1107.98 962.586C1076.23 1001.82 1042.4 1036.8 1002.08 1067.14C957.181 1100.94 914.833 1147.97 858.701 1150.21C802.387 1152.45 755.095 1110.68 708.573 1078.83C664.832 1048.89 633.687 1007.63 595.981 970.355C544.375 919.338 455.314 890.392 445.219 818.489C435.46 748.977 506.301 695.026 549.572 639.796C587.922 590.847 630.729 547.492 683.398 514.485C737.481 480.591 795.574 436.779 858.701 446.066C921.724 455.337 948.522 535.806 1006.59 562.027C1074.28 592.597 1175.18 550.432 1220.41 609.403C1263.68 665.827 1224.87 750.707 1203.29 818.489Z" fill="url(#paint0_linear_16656_177)" fill-opacity="0.5"/>
</g>
<defs>
<filter id="filter0_f_16656_177" x="0.307129" y="0.801758" width="1683.69" height="1593.49" filterUnits="userSpaceOnUse" color-interpolation-filters="sRGB">
<feFlood flood-opacity="0" result="BackgroundImageFix"/>
<feBlend mode="normal" in="SourceGraphic" in2="BackgroundImageFix" result="shape"/>
<feGaussianBlur stdDeviation="222" result="effect1_foregroundBlur_16656_177"/>
</filter>
<linearGradient id="paint0_linear_16656_177" x1="1240" y1="797.548" x2="444.307" y2="797.548" gradientUnits="userSpaceOnUse">
<stop stop-color="#F8C14F"/>
<stop offset="1" stop-color="#FFA6ED" stop-opacity="0"/>
</linearGradient>
</defs>
</svg>
